X: 10561
Q: "Slow with expression."
M: C|
L: 1/8
K: F
|: d2 |\
c2F2 c2d2 | c3A GABd | c2F2 c2d2 | D4 D2 d2 |\
c2F2 c3A | c3A GBAG | F2ED GEFD | C4 C2 :|
|: cd/e/ |\
f3g f2a2 | gfga g2fe | f3g agfe | {e}d4 d2 c/d/e |\
f3g f2a2 | gfga g2fe | f2ed gefd | c4 c2 :|
|: a>g |\
f2F2 BAGF | c2F2 F2a>g | f2F2 c2d2 | D4 D2 a>g |\
f>FF2 A>FF2 | c3A G2A2 | F2EF GFED | C4 C2 :|


